X:0776
T:Miss Geddes's Strathspey.
M:C|
L:1/8
Q:1/4=120
I: :| ||
Z:Jack Campin * www.campin.me.uk * 2009
K:G % pentatonic -47
g|d/d/d (d>B) G>AB<d|e/e/e (e>d) B>deg |d/d/d (d>B) G>AB<d|e/e/e gB A2G:|
d|g/g/g  g>e  d>eg<d|a/a/a (a>g) e>gab |g/g/g (g>e) d>eg<a|e<e```gB A2Gd|
  g/g/g (g>e) d>eg<d|a/a/a (a>g) e>ga<b|g<b````e<g  d<gB<d|e<e```gB A2G|]
<end>
<start>
